X:1
T:21
L:1/8
M:3/8
K:C
V:1 treble nm="Piano" snm="Pno."
V:1
 EGA | c2 d/c/ | G2 A/c/ | !breath!G3 | EGA | c2 A/G/ | E>GA/G/ | !breath!D2 E | GEG | AA>G | %10
 A/c/ d2 | edc | AG>A | d/e/ c2 |] %14

